ui/StatusQ/src/assets/img/icons/compassActive.svg

<svg fill="none" height="24" viewBox="0 0 24 24" width="24" xmlns="http://www.w3.org/2000/svg"><g clip-rule="evenodd" fill="#4360df" fill-rule="evenodd"><path d="m10.5684 9.19475 5.0662-1.4475c.3772-.10777.7259.24095.6182.61812l-1.4476 5.06623c-.1898.6645-.7091 1.1838-1.3736 1.3736l-5.06623 1.4476c-.37717.1077-.72589-.241-.61812-.6182l1.4475-5.0662c.18984-.66446.70919-1.18381 1.37365-1.37365zm.412 1.44225 2.4702-.70572c.3772-.10776.7259.24092.6181.61812l-.7057 2.4702c-.0475.1661-.1773.2959-.3434.3434l-2.4702.7057c-.3772.1078-.72588-.2409-.61812-.6181l.70572-2.4702c.0475-.1661.1773-.2959.3434-.3434z"/><path d="m22 12c0 5.5228-4.4772 10-10 10-5.52285 0-10-4.4772-10-10 0-5.52285 4.47715-10 10-10 5.5228 0 10 4.47715 10 10zm-1.5 0c0 4.6944-3.8056 8.5-8.5 8.5-4.69442 0-8.5-3.8056-8.5-8.5 0-4.69442 3.80558-8.5 8.5-8.5 4.6944 0 8.5 3.80558 8.5 8.5z"/></g></svg>

<svg width="24" height="24" viewBox="0 0 24 24" fill="none" xmlns="http://www.w3.org/2000/svg">
<path fill-rule="evenodd" clip-rule="evenodd" d="M10.5684 9.19475L15.6346 7.74725C16.0118 7.63948 16.3605 7.9882 16.2528 8.36537L14.8052 13.4316C14.6154 14.0961 14.0961 14.6154 13.4316 14.8052L8.36537 16.2528C7.9882 16.3605 7.63948 16.0118 7.74725 15.6346L9.19475 10.5684C9.38459 9.90394 9.90394 9.38459 10.5684 9.19475ZM10.9804 10.637L13.4506 9.93128C13.8278 9.82352 14.1765 10.1722 14.0687 10.5494L13.363 13.0196C13.3155 13.1857 13.1857 13.3155 13.0196 13.363L10.5494 14.0687C10.1722 14.1765 9.82352 13.8278 9.93128 13.4506L10.637 10.9804C10.6845 10.8143 10.8143 10.6845 10.9804 10.637Z" fill="#4360DF"/>
<path fill-rule="evenodd" clip-rule="evenodd" d="M22 12C22 17.5228 17.5228 22 12 22C6.47715 22 2 17.5228 2 12C2 6.47715 6.47715 2 12 2C17.5228 2 22 6.47715 22 12ZM20.5 12C20.5 16.6944 16.6944 20.5 12 20.5C7.30558 20.5 3.5 16.6944 3.5 12C3.5 7.30558 7.30558 3.5 12 3.5C16.6944 3.5 20.5 7.30558 20.5 12Z" fill="#4360DF"/>
</svg>
